X:1
T: Denis Murphy's Reel
C:
R:Reel
Q: 232
K:D
M:4/4
L:1/8
|:fg fe d2 dB|A2 D2 F2 A2|G2 E2 e3d|c2 B2 B2 A2|
fg fe d2 dB|A2 D2 F2 A2|G2 E2 e3f|1e2 d2 d4:|2e2 d2 d3B|
|:A2 f2 fe f2|A2 g2 gf g2|A2 f2 fe f2|ef ed B2 A2|
A2 f2 fe f2|A2 g2 g3a|b2 a2 g2 c2|2e2 d2 d3B:|2e2 d2 d4||
